X: 29
T: I married a wife, but yet I did not
R: Reel
M: 2/2
L: 1/8
K: G
B2d2|"G"g2gg fgaf|g2ggB2d2|"D"f2ff efge|f2ffB2d2|"G"g2gg fgaf|
g2ggB2d2|"D7"fgfe dcBA|"G"G4:||:"D7"BcdB|"G"G2BG GGBG|d2cB ABcA|
"D7"F2AF DFAc|e2"D7"dc BcdB|"G"G2BG GGBG|d2cB ABcA|"D7"F2fe dcBA|"G"G4:|

%%newpage
%%textfont * 14
%%begintext justify
%%32 Bar Reels
%%endtext
